/* XPM */
static char *nala_ball_64[] = {
/* columns rows colors chars-per-pixel */
"64 64 11 1 ",
"  c #4F7A36",
". c #589137",
"X c #65AB3F",
"o c #DB9421",
"O c #E3D462",
"+ c #F9A825",
"@ c #FFF176",
"# c #FFF394",
"$ c gray63",
"% c gray83",
"& c white",
/* pixels */
"    XXXXXXXXXX....XXXXXXXXXXXXXXXXXXXXXXXX....    ....XXXXXXXXXX",
"    XXXXXXXXXX....XXXXXXXXXXXXXXXXXXXXXXXX....    ....XXXXXXXXXX",
"    XXXXXXXXXX....XXXXXXXXXXXXXXXXXXXXXXXX....    ....XXXXXXXXXX",
"    XXXXXXXXXX....XXXXXXXXXXXXXXXXXXXXXXXX....    ....XXXXXXXXXX",
"XXXXXXXXXXXXXX....    ......XXXXXXXXXXXXXXXXXXXXXXXXXXXXXXXXXXXX",
"XXXXXXXXXXXXXX....    ......XXXXXXXXXXXXXXXXXXXXXXXXXXXXXXXXXXXX",
"XXXXXXXXXXXXXX....    ......XXXXXXXXXXXXXXXXXXXXXXXXXXXXXXXXXXXX",
"XXXXXXXXXXXXXX....    ......XXXXXXXXXXXXXXXXXXXXXXXXXXXXXXXXXXXX",
"XXXXXXXXXXXXXX....    ......XXXXXXXXXXXXXXXXXXXXXXXXXXXXXXXXXXXX",
"XXXXXXXXXXXXXX....    ......XXXXXXXXXXXXXXXXXXXXXXXXXXXXXXXXXXXX",
"XXXX......XXXXXXXXXXXX......XXXXXXXX......XXXXXXXXXXXXXXXXXXXXXX",
"XXXX......XXXXXXXXXXXX......XXXXXXXX......XXXXXXXXXXXXXXXXXXXXXX",
"XXXX......XXXXXXXXXXXX......XXXXXXXX......XXXXXXXXXXXXXXXXXXXXXX",
"XXXX......XXXXXXXXXXXX......XXXXXXXX......XXXXXXXXXXXXXXXXXXXXXX",
"XXXX......XXXX    XXXXXXXXXX@@@@@@@@@@....XXXX    XXXX......XXXX",
"XXXX......XXXX    XXXXXXXXXX@@@@@@@@@@....XXXX    XXXX......XXXX",
"XXXX......XXXX    XXXX####@@@@@@@@@@&&&&++++XX    XXXX......XXXX",
"XXXX......XXXX    XXXX####@@@@@@@@@@&&&&++++XX    XXXX......XXXX",
"XXXXXXXXXXXXXX    XXXX##&&@@@@@@@@@@&&%%OO++XX    XXXX......XXXX",
"XXXXXXXXXXXXXX    XXXX##&&@@@@@@@@@@&&%%OO++XX    XXXX......XXXX",
"XXXXXXXXXXXXXX    ######&&&&@@@@@@OO%%%%++++++++  XXXX......XXXX",
"XXXXXXXXXXXXXX    ######&&&&@@@@@@OO%%%%++++++++  XXXX......XXXX",
"....XXXXXXXXXXXXXX####@@&&&&@@@@OOOO%%%%OO++++++XXXXXXXXXXXXXXXX",
"....XXXXXXXXXXXXXX####@@&&&&@@@@OOOO%%%%OO++++++XXXXXXXXXXXXXXXX",
"....XXXXXXXXXXXXXX@@@@@@@@&&&&OOOO++%%%%++++++++XXXXXXXXXXXXXXXX",
"....XXXXXXXXXXXXXX@@@@@@@@&&&&OOOO++%%%%++++++++XXXXXXXXXXXXXXXX",
"....XXXXXXXXXXXX@@@@@@@@@@&&%%OO++%%%%%%++++++++ooXXXXXXXXXXXXXX",
"....XXXXXXXXXXXX@@@@@@@@@@&&%%OO++%%%%%%++++++++ooXXXXXXXXXXXXXX",
"....XXXXXXXXXX..@@@@@@@@@@%%%%OOOO%%%%%%++++++ooooXXXXXXXXXXXXXX",
"....XXXXXXXXXX..@@@@@@@@@@%%%%OOOO%%%%%%++++++ooooXXXXXXXXXXXXXX",
"....XXXXXXXXXX..@@@@@@@@%%%%%%++OO%%%%%%++++ooooooXXXXXXXXXXXXXX",
"....XXXXXXXXXX..@@@@@@@@%%%%%%++OO%%%%%%++++ooooooXXXXXXXXXXXXXX",
"XXXXXXXXXXXXXX..@@@@@@OO%%%%%%OO++%%%%%%++++ooooooXXXXXXXXXXXXXX",
"XXXXXXXXXXXXXX..@@@@@@OO%%%%%%OO++%%%%%%++++ooooooXXXXXXXXXXXXXX",
"XXXXXXXXXXXXXX..@@OOOOOO%%%%%%++++%%%%%%++++ooooooXXXXXXXXXXXXXX",
"XXXXXXXXXXXXXX..@@OOOOOO%%%%%%++++%%%%%%++++ooooooXXXXXXXXXXXXXX",
"XXXXXXXXXXXXXXXXXXOOOO++OO%%%%++++++%%%%++oooooo..XXXXXXXXXX....",
"XXXXXXXXXXXXXXXXXXOOOO++OO%%%%++++++%%%%++oooooo..XXXXXXXXXX....",
"XXXXXXXXXXXXXXXXXXOOOO++OO%%%%++++++%%%%oooooooo..XXXXXXXXXX....",
"XXXXXXXXXXXXXXXXXXOOOO++OO%%%%++++++%%%%oooooooo..XXXXXXXXXX....",
"XXXXXXXXXXXXXXXXXXOOOOOO++%%%%++++++%%$$$$$$oooo..XXXXXXXXXX....",
"XXXXXXXXXXXXXXXXXXOOOOOO++%%%%++++++%%$$$$$$oooo..XXXXXXXXXX....",
"XXXX      XXXXXXXX....++%%%%++++oooooo$$$$$$$$XXXXXXXXXXXXXX....",
"XXXX      XXXXXXXX....++%%%%++++oooooo$$$$$$$$XXXXXXXXXXXXXX....",
"XXXX      XXXXXXXX....++%%$$oooooooooooo$$$$XXXXXXXXXXXXXXXX....",
"XXXX      XXXXXXXX....++%%$$oooooooooooo$$$$XXXXXXXXXXXXXXXX....",
"XXXX      XXXXXXXX....XXXX$$oooooooooo....XXXXXXXX    XXXXXXXXXX",
"XXXX      XXXXXXXX....XXXX$$oooooooooo....XXXXXXXX    XXXXXXXXXX",
"XXXX      XXXXXXXX....XXXXXXXXXXXXXX......XXXXXXXX    XXXXXXXXXX",
"XXXX      XXXXXXXX....XXXXXXXXXXXXXX......XXXXXXXX    XXXXXXXXXX",
"XXXXXXXXXX....XXXXXXXXXXXXXXXXXXXXXX......XXXXXXXX    XXXXXXXXXX",
"XXXXXXXXXX....XXXXXXXXXXXXXXXXXXXXXX......XXXXXXXX    XXXXXXXXXX",
"XXXXXXXXXX....XXXXXXXXXXXXXXXXXXXXXX......XXXXXXXX    XXXXXXXXXX",
"XXXXXXXXXX....XXXXXXXXXXXXXXXXXXXXXX......XXXXXXXX    XXXXXXXXXX",
"XXXXXXXXXX....XXXXXXXXXXXXXX    XXXXXXXXXXXXXXXXXXXXXXXXXXXX....",
"XXXXXXXXXX....XXXXXXXXXXXXXX    XXXXXXXXXXXXXXXXXXXXXXXXXXXX....",
"XXXXXXXXXX....XXXXXXXXXXXXXX    XXXXXXXXXXXXXXXXXXXXXXXXXXXX....",
"XXXXXXXXXX....XXXXXXXXXXXXXX    XXXXXXXXXXXXXXXXXXXXXXXXXXXX....",
"XXXXXXXXXX....XXXXXXXXXXXXXX    XXXXXXXXXXXXXXXXXXXXXXXXXXXX....",
"XXXXXXXXXX....XXXXXXXXXXXXXX    XXXXXXXXXXXXXXXXXXXXXXXXXXXX....",
"    XXXXXXXXXXXXXXXXXXXXXXXX    XXXXXXXXXX....    ....XXXXXX....",
"    XXXXXXXXXXXXXXXXXXXXXXXX    XXXXXXXXXX....    ....XXXXXX....",
"    XXXXXXXXXXXXXXXXXXXXXXXX    XXXXXXXXXX....    ....XXXXXX....",
"    XXXXXXXXXXXXXXXXXXXXXXXX    XXXXXXXXXX....    ....XXXXXX...."
};
