/* XPM */
static char *_94fdac7898b4f7ed60bae0d63abccbbF8JgX0juSYAhpuy8[] = {
/* columns rows colors chars-per-pixel */
"64 64 3 1 ",
"  c #4F7A36",
". c #589137",
"X c #65AB3F",
/* pixels */
"    XXXXXXXXXX....XXXXXXXXXXXXXXXXXXXXXXXX....    ....XXXXXXXXXX",
"    XXXXXXXXXX....XXXXXXXXXXXXXXXXXXXXXXXX....    ....XXXXXXXXXX",
"    XXXXXXXXXX....XXXXXXXXXXXXXXXXXXXXXXXX....    ....XXXXXXXXXX",
"    XXXXXXXXXX....XXXXXXXXXXXXXXXXXXXXXXXX....    ....XXXXXXXXXX",
"XXXXXXXXXXXXXX....    ......XXXXXXXXXXXXXXXXXXXXXXXXXXXXXXXXXXXX",
"XXXXXXXXXXXXXX....    ......XXXXXXXXXXXXXXXXXXXXXXXXXXXXXXXXXXXX",
"XXXXXXXXXXXXXX....    ......XXXXXXXXXXXXXXXXXXXXXXXXXXXXXXXXXXXX",
"XXXXXXXXXXXXXX....    ......XXXXXXXXXXXXXXXXXXXXXXXXXXXXXXXXXXXX",
"XXXXXXXXXXXXXX....    ......XXXXXXXXXXXXXXXXXXXXXXXXXXXXXXXXXXXX",
"XXXXXXXXXXXXXX....    ......XXXXXXXXXXXXXXXXXXXXXXXXXXXXXXXXXXXX",
"XXXX......XXXXXXXXXXXX......XXXXXXXX......XXXXXXXXXXXXXXXXXXXXXX",
"XXXX......XXXXXXXXXXXX......XXXXXXXX......XXXXXXXXXXXXXXXXXXXXXX",
"XXXX......XXXXXXXXXXXX......XXXXXXXX......XXXXXXXXXXXXXXXXXXXXXX",
"XXXX......XXXXXXXXXXXX......XXXXXXXX......XXXXXXXXXXXXXXXXXXXXXX",
"XXXX......XXXX    XXXXXXXXXXXXXXXXXX......XXXX    XXXX......XXXX",
"XXXX......XXXX    XXXXXXXXXXXXXXXXXX......XXXX    XXXX......XXXX",
"XXXX......XXXX    XXXXXXXXXXXXXXXXXX......XXXX    XXXX......XXXX",
"XXXX......XXXX    XXXXXXXXXXXXXXXXXX......XXXX    XXXX......XXXX",
"XXXXXXXXXXXXXX    XXXXXXXXXXXXXXXXXXXXXXXXXXXX    XXXX......XXXX",
"XXXXXXXXXXXXXX    XXXXXXXXXXXXXXXXXXXXXXXXXXXX    XXXX......XXXX",
"XXXXXXXXXXXXXX    XXXXXXXXXXXXXXXXXXXXXXXXXXXX    XXXX......XXXX",
"XXXXXXXXXXXXXX    XXXXXXXXXXXXXXXXXXXXXXXXXXXX    XXXX......XXXX",
"....XXXXXXXXXXXXXXXXXXXXXXXX....    ......XXXXXXXXXXXXXXXXXXXXXX",
"....XXXXXXXXXXXXXXXXXXXXXXXX....    ......XXXXXXXXXXXXXXXXXXXXXX",
"....XXXXXXXXXXXXXXXXXXXXXXXX....    ......XXXXXXXXXXXXXXXXXXXXXX",
"....XXXXXXXXXXXXXXXXXXXXXXXX....    ......XXXXXXXXXXXXXXXXXXXXXX",
"....XXXXXXXXXXXXXXXXXXXXXXXX....    ......XXXXXXXXXXXXXXXXXXXXXX",
"....XXXXXXXXXXXXXXXXXXXXXXXX....    ......XXXXXXXXXXXXXXXXXXXXXX",
"....XXXXXXXXXX....XXXXXXXXXX....    ......XXXXXXXXXXXXXXXXXXXXXX",
"....XXXXXXXXXX....XXXXXXXXXX....    ......XXXXXXXXXXXXXXXXXXXXXX",
"....XXXXXXXXXX....XXXXXXXXXX....    ......XXXXXXXXXXXXXXXXXXXXXX",
"....XXXXXXXXXX....XXXXXXXXXX....    ......XXXXXXXXXXXXXXXXXXXXXX",
"XXXXXXXXXXXXXX....XXXXXXXXXXXXXXXXXXXXXXXXXXXX....XXXXXXXXXXXXXX",
"XXXXXXXXXXXXXX....XXXXXXXXXXXXXXXXXXXXXXXXXXXX....XXXXXXXXXXXXXX",
"XXXXXXXXXXXXXX....XXXXXXXXXXXXXXXXXXXXXXXXXXXX....XXXXXXXXXXXXXX",
"XXXXXXXXXXXXXX....XXXXXXXXXXXXXXXXXXXXXXXXXXXX....XXXXXXXXXXXXXX",
"XXXXXXXXXXXXXXXXXXXXXXXXXXXX....XXXXXXXXXXXXXX....XXXXXXXXXX....",
"XXXXXXXXXXXXXXXXXXXXXXXXXXXX....XXXXXXXXXXXXXX....XXXXXXXXXX....",
"XXXXXXXXXXXXXXXXXXXXXXXXXXXX....XXXXXXXXXXXXXX....XXXXXXXXXX....",
"XXXXXXXXXXXXXXXXXXXXXXXXXXXX....XXXXXXXXXXXXXX....XXXXXXXXXX....",
"XXXXXXXXXXXXXXXXXXXXXXXXXXXX....XXXXXXXXXXXXXX....XXXXXXXXXX....",
"XXXXXXXXXXXXXXXXXXXXXXXXXXXX....XXXXXXXXXXXXXX....XXXXXXXXXX....",
"XXXX      XXXXXXXX....      ....XXXXXXXXXXXXXXXXXXXXXXXXXXXX....",
"XXXX      XXXXXXXX....      ....XXXXXXXXXXXXXXXXXXXXXXXXXXXX....",
"XXXX      XXXXXXXX....      ....XXXXXXXXXXXXXXXXXXXXXXXXXXXX....",
"XXXX      XXXXXXXX....      ....XXXXXXXXXXXXXXXXXXXXXXXXXXXX....",
"XXXX      XXXXXXXX....XXXXXXXXXXXXXX......XXXXXXXX    XXXXXXXXXX",
"XXXX      XXXXXXXX....XXXXXXXXXXXXXX......XXXXXXXX    XXXXXXXXXX",
"XXXX      XXXXXXXX....XXXXXXXXXXXXXX......XXXXXXXX    XXXXXXXXXX",
"XXXX      XXXXXXXX....XXXXXXXXXXXXXX......XXXXXXXX    XXXXXXXXXX",
"XXXXXXXXXX....XXXXXXXXXXXXXXXXXXXXXX......XXXXXXXX    XXXXXXXXXX",
"XXXXXXXXXX....XXXXXXXXXXXXXXXXXXXXXX......XXXXXXXX    XXXXXXXXXX",
"XXXXXXXXXX....XXXXXXXXXXXXXXXXXXXXXX......XXXXXXXX    XXXXXXXXXX",
"XXXXXXXXXX....XXXXXXXXXXXXXXXXXXXXXX......XXXXXXXX    XXXXXXXXXX",
"XXXXXXXXXX....XXXXXXXXXXXXXX    XXXXXXXXXXXXXXXXXXXXXXXXXXXX....",
"XXXXXXXXXX....XXXXXXXXXXXXXX    XXXXXXXXXXXXXXXXXXXXXXXXXXXX....",
"XXXXXXXXXX....XXXXXXXXXXXXXX    XXXXXXXXXXXXXXXXXXXXXXXXXXXX....",
"XXXXXXXXXX....XXXXXXXXXXXXXX    XXXXXXXXXXXXXXXXXXXXXXXXXXXX....",
"XXXXXXXXXX....XXXXXXXXXXXXXX    XXXXXXXXXXXXXXXXXXXXXXXXXXXX....",
"XXXXXXXXXX....XXXXXXXXXXXXXX    XXXXXXXXXXXXXXXXXXXXXXXXXXXX....",
"    XXXXXXXXXXXXXXXXXXXXXXXX    XXXXXXXXXX....    ....XXXXXX....",
"    XXXXXXXXXXXXXXXXXXXXXXXX    XXXXXXXXXX....    ....XXXXXX....",
"    XXXXXXXXXXXXXXXXXXXXXXXX    XXXXXXXXXX....    ....XXXXXX....",
"    XXXXXXXXXXXXXXXXXXXXXXXX    XXXXXXXXXX....    ....XXXXXX...."
};
