/* XPM */
static char *_94c4b2fa54c4376db9396f8800154c7KDBJePGdOW2hivgv[] = {
/* columns rows colors chars-per-pixel */
"64 64 4 1 ",
"  c None",
". c black",
"X c gray19",
"o c white",
/* pixels */
"                                                                ",
"                                                                ",
"                ..........                                      ",
"                ..........                                      ",
"            ....XXXXXXXXXX....                                  ",
"            ....XXXXXXXXXX....                                  ",
"          ..XXXXXXXXXXXXXXXXXX....                              ",
"          ..XXXXXXXXXXXXXXXXXX....                              ",
"        ..XXXXXXXXXXXXXXXXXXXXXXXX..            ......          ",
"        ..XXXXXXXXXXXXXXXXXXXXXXXX..            ......          ",
"      ..XXoo..XXXXXXXXoo..XXXXXXXXXX..          ....XX..        ",
"      ..XXoo..XXXXXXXXoo..XXXXXXXXXX..          ....XX..        ",
"    ..XXXX....XXXXXXXX....XXXXXXXXXXXX..          ....XX..      ",
"    ..XXXX....XXXXXXXX....XXXXXXXXXXXX..          ....XX..      ",
"  ..XXXXXXXXXXXXXXXXXXXXXXXXXXXXXXXXXXXX..          ..XX..      ",
"  ..XXXXXXXXXXXXXXXXXXXXXXXXXXXXXXXXXXXX..          ..XX..      ",
"  ..XXXXXXXXXXXXXXXXXXXXXXXX..XXXXXXXXXXXX..      ..XXXX..      ",
"  ..XXXXXXXXXXXXXXXXXXXXXXXX..XXXXXXXXXXXX..      ..XXXX..      ",
"  ..XXXXXXXX......XXXXXXXXXX..XXXXXXXXXXXX........XXXX..        ",
"  ..XXXXXXXX......XXXXXXXXXX..XXXXXXXXXXXX........XXXX..        ",
"    ..XX..XX......XXXXXXXXXX..XXXXXXXXXX..XXXXXXXXXXXX..        ",
"    ..XX..XX......XXXXXXXXXX..XXXXXXXXXX..XXXXXXXXXXXX..        ",
"    ..XX..XXXX..XXXXXXXXXX....XXXXXXXXXX..XXXXXXXXXX....        ",
"    ..XX..XXXX..XXXXXXXXXX....XXXXXXXXXX..XXXXXXXXXX....        ",
"      ..XX..XX....XXXXXXXXXX..XXXXXXXX..XXXXXXXXXXXX..          ",
"      ..XX..XX....XXXXXXXXXX..XXXXXXXX..XXXXXXXXXXXX..          ",
"        ......    ..XXXXXX..XX..XXXXXX..XXXXXXXXXXXX..          ",
"        ......    ..XXXXXX..XX..XXXXXX..XXXXXXXXXXXX..          ",
"                    ......XXXX..XXXX..XXXXXXXXXXXXXX..          ",
"                    ......XXXX..XXXX..XXXXXXXXXXXXXX..          ",
"                  ..XXXXXXXXXXXX....XXXXXXXXXXXXXXXX..          ",
"                  ..XXXXXXXXXXXX....XXXXXXXXXXXXXXXX..          ",
"                  ..XXXXXXXXXXXXXXXXXXXXXXXXXXXXXXXX..          ",
"                  ..XXXXXXXXXXXXXXXXXXXXXXXXXXXXXXXX..          ",
"                ..XXXXXXXXXXXXXXXXXXXXXXXXXXXXXXXXXXXX..        ",
"                ..XXXXXXXXXXXXXXXXXXXXXXXXXXXXXXXXXXXX..        ",
"                ..XXXXXXXXXXXXXXXXXXXXXX..XXXXXXXXXXXX..        ",
"                ..XXXXXXXXXXXXXXXXXXXXXX..XXXXXXXXXXXX..        ",
"              ..XXXXXXXXXXXXXXXXXXXXXXXX..XXXXXXXXXXXXXX..      ",
"              ..XXXXXXXXXXXXXXXXXXXXXXXX..XXXXXXXXXXXXXX..      ",
"              ....XXXXXXXXXXXX..XXXXXX....XXXX....XXXXXX..      ",
"              ....XXXXXXXXXXXX..XXXXXX....XXXX....XXXXXX..      ",
"              ......XXXXXXXXXXXX..XXXX..  ....    ..XXXXXX..    ",
"              ......XXXXXXXXXXXX..XXXX..  ....    ..XXXXXX..    ",
"              ..XXXX..XXXXXXXXXX..XXXX....          ..XXXX..    ",
"              ..XXXX..XXXXXXXXXX..XXXX....          ..XXXX..    ",
"              ..XXXXXX............XXXX....            ..XX..    ",
"              ..XXXXXX............XXXX....            ..XX..    ",
"                ..XXXX..        ..XXXX..              ..XX..    ",
"                ..XXXX..        ..XXXX..              ..XX..    ",
"                ..XXXX..        ..XXXX..              ..XX..    ",
"                ..XXXX..        ..XXXX..              ..XX..    ",
"                ..XXXX..        ..XXXX..              ..XX..    ",
"                ..XXXX..        ..XXXX..              ..XX..    ",
"              ..XXXXXX..      ..XXXXXX..            ..XXXX..    ",
"              ..XXXXXX..      ..XXXXXX..            ..XXXX..    ",
"              ..XXXXXX..      ..XXXXXX..            ........    ",
"              ..XXXXXX..      ..XXXXXX..            ........    ",
"              ..........      ..........                        ",
"              ..........      ..........                        ",
"                                                                ",
"                                                                ",
"                                                                ",
"                                                                "
};
