/* XPM */
static char *_add3a3c56984bf1e67d3b4ac6442716HIlTpprU8m6DAWtg[] = {
/* columns rows colors chars-per-pixel */
"64 64 7 1 ",
"  c None",
". c #18162A",
"X c #242A46",
"o c #263A5A",
"O c #2C5C6E",
"+ c #529894",
"@ c #7FBD8E",
/* pixels */
"                                                                ",
"                                                                ",
"                                                                ",
"                                                                ",
"                                                                ",
"                                                                ",
"                                                                ",
"                                                                ",
"                        ++@@@@@@@@@@@@++                        ",
"                        ++@@@@@@@@@@@@++                        ",
"                  ++++++++@@@@@@@@@@@@++++++++                  ",
"                  ++++++++@@@@@@@@@@@@++++++++                  ",
"                  ++++++++@@@@@@@@@@@@++++++++                  ",
"                  ++++++++@@@@@@@@@@@@++++++++                  ",
"                ++++++++@@@@++++++++++++++++++++                ",
"                ++++++++@@@@++++++++++++++++++++                ",
"              OO++@@@@@@@@++++OOOOOOOOOOOOOOOO++OO              ",
"              OO++@@@@@@@@++++OOOOOOOOOOOOOOOO++OO              ",
"          OOOOOO++@@++++++++OOOOOOooooooOOOOOOOOOOOOOO          ",
"          OOOOOO++@@++++++++OOOOOOooooooOOOOOOOOOOOOOO          ",
"          OOOOOO@@@@++++OOOOOOOOOO....ooooooooOOOOOOOO          ",
"          OOOOOO@@@@++++OOOOOOOOOO....ooooooooOOOOOOOO          ",
"          OOOOOO@@@@++++OOOOOOOOOO....ooooooooOOOOOOOO          ",
"          OOOOOO@@@@++++OOOOOOOOOO....ooooooooOOOOOOOO          ",
"        OOOOOO@@@@++++++OOOO..........ooooooooooOOOOOOOO        ",
"        OOOOOO@@@@++++++OOOO..........ooooooooooOOOOOOOO        ",
"        OOOOOO@@@@++++++OO....@@@@@@@@XXXXXXooooOOOOOOOO        ",
"        OOOOOO@@@@++++++OO....@@@@@@@@XXXXXXooooOOOOOOOO        ",
"        OOOOOOOO@@++++++OO..@@@@@@..@@@@XXXXXXooooOOOOOO        ",
"        OOOOOOOO@@++++++OO..@@@@@@..@@@@XXXXXXooooOOOOOO        ",
"        OOOOOOOO@@++++++OO..........++@@@@@@XXooooOOOOOO        ",
"        OOOOOOOO@@++++++OO..........++@@@@@@XXooooOOOOOO        ",
"        OOOOOOOO@@++++++OO..........++@@@@@@XXooooOOOOOO        ",
"        OOOOOOOO@@++++++OO..........++@@@@@@XXooooOOOOOO        ",
"        OOooooOO@@@@++++OOOO......OO++@@XXXXXXooooOOOOOO        ",
"        OOooooOO@@@@++++OOOO......OO++@@XXXXXXooooOOOOOO        ",
"        ooooooooOO@@++++++OOOOOOOOOO++XXXXXXXXooooOOOOOO        ",
"        ooooooooOO@@++++++OOOOOOOOOO++XXXXXXXXooooOOOOOO        ",
"        oooooooooo@@++++++++++++++++++XXXXXXXXoooooooooo        ",
"        oooooooooo@@++++++++++++++++++XXXXXXXXoooooooooo        ",
"          oooooooo@@@@@@@@++++++++@@XXXXXXXXXXoooooooo          ",
"          oooooooo@@@@@@@@++++++++@@XXXXXXXXXXoooooooo          ",
"          oooooooo@@@@@@@@++++++++@@XXXXXXXXXXoooooooo          ",
"          oooooooo@@@@@@@@++++++++@@XXXXXXXXXXoooooooo          ",
"          ooooooXXXX@@@@@@@@@@@@@@XXXXXXXXXXoooooooooo          ",
"          ooooooXXXX@@@@@@@@@@@@@@XXXXXXXXXXoooooooooo          ",
"              ooXXXXXXXXXXXXXXXXXXXXXXXXXXXXXXoooo              ",
"              ooXXXXXXXXXXXXXXXXXXXXXXXXXXXXXXoooo              ",
"                ooXXXXXXXXXXXXXXXXXXXXXXXXXXXXXX                ",
"                ooXXXXXXXXXXXXXXXXXXXXXXXXXXXXXX                ",
"                  XXXXXXXXXXXXXXXXXXXXXXXXXXXX                  ",
"                  XXXXXXXXXXXXXXXXXXXXXXXXXXXX                  ",
"                  XXXXXXXXXXXXXXXXXXXXXXXXXXXX                  ",
"                  XXXXXXXXXXXXXXXXXXXXXXXXXXXX                  ",
"                        XXXXXXXXXXXXXXXX                        ",
"                        XXXXXXXXXXXXXXXX                        ",
"                                                                ",
"                                                                ",
"                                                                ",
"                                                                ",
"                                                                ",
"                                                                ",
"                                                                ",
"                                                                "
};
