/* XPM */
static char *nala_tree_64[] = {
/* columns rows colors chars-per-pixel */
"64 64 10 1 ",
"  c #44854E",
". c #4F7A36",
"X c #589137",
"o c #65A858",
"O c #65AB3F",
"+ c #8D5342",
"@ c #8EC96C",
"# c #AC7048",
"$ c #B0704C",
"% c #C4925D",
/* pixels */
"....OOOOOOOOOOXXXXOOOOOOOOOOOOOOOOOOOOOOOOXXXX....XXXXOOOOOOOOOO",
"....OOOOOOOOOOXXXXOOOOOOOOOOOOOOOOOOOOOOOOXXXX....XXXXOOOOOOOOOO",
"....OOOOOOOOOOXXXXOOOOOOOOOOOOOOOO@@@@OOOOXXXX....XXXXOOOOOOOOOO",
"....OOOOOOOOOOXXXXOOOOOOOOOOOOOOOO@@@@OOOOXXXX....XXXXOOOOOOOOOO",
"OOOOOOOOOOOOOOXXXX....XXXXXXOO@@@@ooooooooOOOOOOOOOOOOOOOOOOOOOO",
"OOOOOOOOOOOOOOXXXX....XXXXXXOO@@@@ooooooooOOOOOOOOOOOOOOOOOOOOOO",
"OOOOOOOOOOOOOOXXXX....XXXXXXOO@@@@ooooooooOOOOOOOOOOOOOOOOOOOOOO",
"OOOOOOOOOOOOOOXXXX....XXXXXXOO@@@@ooooooooOOOOOOOOOOOOOOOOOOOOOO",
"OOOOOOOOOOOOOOXX@@@@@@XXXX@@@@ooooooooOOOO@@@@@@@@@@OOOOOOOOOOOO",
"OOOOOOOOOOOOOOXX@@@@@@XXXX@@@@ooooooooOOOO@@@@@@@@@@OOOOOOOOOOOO",
"OOOOXXXXXXOO@@@@oooooooooooooo@@@@oooooooo@@@@@@ooooooooOOOOOOOO",
"OOOOXXXXXXOO@@@@oooooooooooooo@@@@oooooooo@@@@@@ooooooooOOOOOOOO",
"OOOOXXXXXXOO@@@@oooooooooooooo@@@@oooooooo@@@@@@ooooooooOOOOOOOO",
"OOOOXXXXXXOO@@@@oooooooooooooo@@@@oooooooo@@@@@@ooooooooOOOOOOOO",
"OOOOXXXXXXOO@@@@oooooooooo@@@@        oooo      ooooOOXXXXXXOOOO",
"OOOOXXXXXXOO@@@@oooooooooo@@@@        oooo      ooooOOXXXXXXOOOO",
"OOOOXXXXXXOOOO....OOOO@@@@oooooooo        @@@@@@ooooooooXXXXOOOO",
"OOOOXXXXXXOOOO....OOOO@@@@oooooooo        @@@@@@ooooooooXXXXOOOO",
"OOOOOOOOOOOOOO....OOOO@@@@oooooooo        @@@@@@ooooooooXXXXOOOO",
"OOOOOOOOOOOOOO....OOOO@@@@oooooooo        @@@@@@ooooooooXXXXOOOO",
"OOOOOOOOOOOOOO..@@@@@@@@@@@@@@    oooooooo      @@@@ooooooooOOOO",
"OOOOOOOOOOOOOO..@@@@@@@@@@@@@@    oooooooo      @@@@ooooooooOOOO",
"XXXX@@@@@@@@OOOOOOOOOO@@@@####@@@@ooooooooOOOOOO    @@@@    OOOO",
"XXXX@@@@@@@@OOOOOOOOOO@@@@####@@@@ooooooooOOOOOO    @@@@    OOOO",
"XXXX@@@@@@@@OOOOOOOOOO@@@@####@@@@ooooooooOOOOOO    @@@@    OOOO",
"XXXX@@@@@@@@OOOOOOOOOO@@@@####@@@@ooooooooOOOOOO    @@@@    OOOO",
"XXXXOOOO@@@@ooooOOOOOOOOOOOOXX++++@@@@oooooooooo++++OOOOOOOOOOOO",
"XXXXOOOO@@@@ooooOOOOOOOOOOOOXX++++@@@@oooooooooo++++OOOOOOOOOOOO",
"XXXX@@@@oooooooooooooo    OOXX    @@@@ooooooooooOOOOooooOOOOOOOO",
"XXXX@@@@oooooooooooooo    OOXX    @@@@ooooooooooOOOOooooOOOOOOOO",
"XXXX@@@@oooooooooooooo    OOXX    @@@@ooooooooooOOOOooooOOOOOOOO",
"XXXX@@@@oooooooooooooo    OOXX    @@@@ooooooooooOOOOooooOOOOOOOO",
"OOOO@@@@@@@@++++          ooooOOOO++++@@@@      @@@@ooooOOOOOOOO",
"OOOO@@@@@@@@++++          ooooOOOO++++@@@@      @@@@ooooOOOOOOOO",
"OOOOOOOO        @@@@@@oooooooooooo++++    OOOOXX@@@@@@@@ooooOOOO",
"OOOOOOOO        @@@@@@oooooooooooo++++    OOOOXX@@@@@@@@ooooOOOO",
"OOOOOOOO        @@@@@@oooooooooooo++++    OOOOXX@@@@@@@@ooooXXXX",
"OOOOOOOO        @@@@@@oooooooooooo++++    OOOOXX@@@@@@@@ooooXXXX",
"OOOOOOOOOOOOOOOO@@@@@@    @@@@++++++++++++OOOOXX@@@@++++    XXXX",
"OOOOOOOOOOOOOOOO@@@@@@    @@@@++++++++++++OOOOXX@@@@++++    XXXX",
"OOOOOOOOOOOOOOOOOOOOOO@@@@    ####++++++++++++++++++OOOOOOOOXXXX",
"OOOOOOOOOOOOOOOOOOOOOO@@@@    ####++++++++++++++++++OOOOOOOOXXXX",
"OOOO......OOOOOOOOXXXX@@@@    ####++++++++++++++++++OOOOOOOOXXXX",
"OOOO......OOOOOOOOXXXX@@@@    ####++++++++++++++++++OOOOOOOOXXXX",
"OOOO......OOOOOOOOXXXX......XX%%%%$$$$++++OOOOOOOOOOOOOOOOOOXXXX",
"OOOO......OOOOOOOOXXXX......XX%%%%$$$$++++OOOOOOOOOOOOOOOOOOXXXX",
"OOOO......OOOOOOOOXXXXOOOOOOOO%%%%$$$$++++++++++OO....OOOOOOOOOO",
"OOOO......OOOOOOOOXXXXOOOOOOOO%%%%$$$$++++++++++OO....OOOOOOOOOO",
"OOOO......OOOOOOOOXXXXOOOOOOOO%%%%$$$$++++++++++OO....OOOOOOOOOO",
"OOOO......OOOOOOOOXXXXOOOOOOOO%%%%$$$$++++++++++OO....OOOOOOOOOO",
"OOOOOOOOOOXXXXOOOOOOOOOOOO%%%%$$$$%%%%$$$$++++++OO....OOOOOOOOOO",
"OOOOOOOOOOXXXXOOOOOOOOOOOO%%%%$$$$%%%%$$$$++++++OO....OOOOOOOOOO",
"OOOOOOOOOOXXXXOO$$$$$$$$$$++++$$$$%%%%++++$$$$$$$$$$$$$$OOOOOOOO",
"OOOOOOOOOOXXXXOO$$$$$$$$$$++++$$$$%%%%++++$$$$$$$$$$$$$$OOOOOOOO",
"OOOOOOOOOOXXXXOO$$$$$$$$$$++++$$$$%%%%++++$$$$$$$$$$$$$$OOOOXXXX",
"OOOOOOOOOOXXXXOO$$$$$$$$$$++++$$$$%%%%++++$$$$$$$$$$$$$$OOOOXXXX",
"OOOOOOOOOOXXXXOOOOOOOOOOOOOO..++++%%%%OOOOOOOOOOOOOOOOOOOOOOXXXX",
"OOOOOOOOOOXXXXOOOOOOOOOOOOOO..++++%%%%OOOOOOOOOOOOOOOOOOOOOOXXXX",
"OOOOOOOOOOXXXXOOOOOOOOOOOOOO....OO$$$$OOOOOOOOOOOOOOOOOOOOOOXXXX",
"OOOOOOOOOOXXXXOOOOOOOOOOOOOO....OO$$$$OOOOOOOOOOOOOOOOOOOOOOXXXX",
"....OOOOOOOOOOOOOOOOOOOOOOOO....OO$$$$OOOOXXXX....XXXXOOOOOOXXXX",
"....OOOOOOOOOOOOOOOOOOOOOOOO....OO$$$$OOOOXXXX....XXXXOOOOOOXXXX",
"....OOOOOOOOOOOOOOOOOOOOOOOO....OOOOOOOOOOXXXX....XXXXOOOOOOXXXX",
"....OOOOOOOOOOOOOOOOOOOOOOOO....OOOOOOOOOOXXXX....XXXXOOOOOOXXXX"
};
